X: 25934
T: Maurice Lennon's Tribute To Larry Reynolds
R: reel
M: 4/4
K: Amajor
|:A,3 c, EA,CE|A,CEF E3 F|EA, ~A,2 EA,CE|AEAB cAag|
f3a eAce|dcBA B2 AB|c2BA FAAF|EAcB AFEC:|
f2af e3 c|dcBA B2AB|cAeA fAeA|cBBA B2 ag|
f2 af eAce|dcBA B2 AB|c2 BA FAAF|EAcB AFEC:|

